proprietary/assets/icons/op-kantoor/document-met-potlood.svg

<svg enable-background="new 0 0 64 64" viewBox="0 0 64 64" xmlns="http://www.w3.org/2000/svg"><path d="m0 0h64v64h-64z" fill="none"/><path d="m17 52v-26.708l-3.148-.932c-.342-.11-.219-.36-.219-.36h14.367c.552 0 1-.448 1-1v-14.366s.251-.11.36.231l.932 3.135h16.708v23.4l5-5v-21.4c0-1.104-.896-2-2-2h-21.171c-.531 0-1.04.211-1.415.586l-14.828 14.828c-.375.375-.586.884-.586 1.415v31.171c0 1.1.9 2 2 2h16.425l1.583-5zm33 5c1.104 0 2-.896 2-2v-4.55l-6.55 6.55zm9.467-24.042c-1.906-1.906-4.283-2.631-5.298-1.616l-19.482 19.483-2.847 8.995c-.149.471.294.914.765.765l8.996-2.847 19.482-19.482c1.015-1.015.29-3.392-1.616-5.298zm-23.838 24.572-.734-.734 1.425-4.504.917.521.719 1.655 1.574.684.587.957zm5.371-28.53h-18v3h18zm0-10h-8v3h8zm0 16h-18v3h18zm-18 9h12v-3h-12z"/></svg>

<?xml version="1.0" encoding="utf-8"?>
<!-- Generator: Adobe Illustrator 25.2.0, SVG Export Plug-In . SVG Version: 6.00 Build 0)  -->
<svg version="1.1" xmlns="http://www.w3.org/2000/svg" xmlns:xlink="http://www.w3.org/1999/xlink" x="0px" y="0px"
	 viewBox="0 0 64 64" style="enable-background:new 0 0 64 64;" xml:space="preserve">
<style type="text/css">
	.st0{fill:none;}
	.st1{fill:#B3B3B3;}
</style>
<g id="Box">
	<rect class="st0" width="64" height="64"/>
</g>
<g id="Icon">
	<path d="M17,52V25.292l-3.148-0.932C13.51,24.25,13.633,24,13.633,24H28c0.552,0,1-0.448,1-1V8.634c0,0,0.251-0.11,0.36,0.231
		L30.292,12H47v23.4l5-5V9c0-1.104-0.896-2-2-2H28.829c-0.531,0-1.04,0.211-1.415,0.586L12.586,22.414
		C12.211,22.789,12,23.298,12,23.829V55c0,1.1,0.9,2,2,2h16.425l1.583-5H17z M50,57c1.104,0,2-0.896,2-2v-4.55L45.45,57H50z
		 M59.467,32.958c-1.906-1.906-4.283-2.631-5.298-1.616L34.687,50.825L31.84,59.82c-0.149,0.471,0.294,0.914,0.765,0.765
		l8.996-2.847l19.482-19.482C62.098,37.241,61.373,34.864,59.467,32.958z M35.629,57.53l-0.734-0.734l1.425-4.504l0.917,0.521
		l0.719,1.655l1.574,0.684l0.587,0.957L35.629,57.53z M41,29H23v3h18V29z M41,19h-8v3h8V19z M41,35H23v3h18V35z M23,44h12v-3H23V44z
		"/>
</g>
</svg>
